X:906
T:Mist Covered Mountains #1, The
C:Joe Buchanan's Scottish Tome - Page 520.2-521.1
I:520 2
Z:Carl Allison
R:Waltz
L:1/8
M:3/4
K:C
"Am"A6 | A6 | "C"c2> c2 c2 | "Em"(c2 d2 B2) |
"G"G6 | G6 | "Bm"B2> A2 B2 | "Am"(A2> G2 A2) |
"Am"c6 | "G"d6 | "C"e2> ^f2 g2 | "Em"(B2> A2 G2) |
"Am"A2> B2 e2 | "G"(d2 c2 B2) | "Am"A6 | A6 |
"Am"e6 | e6 | "G"d2> e2 g2 | "Am"(e2> d2 B2) | 
"G"G4 G2 | "Bm"d4 B2 | "Am"e4 e2 | "Bm"(d2 c2 B2) | 
"Am"A6 | c6 | "G"d2> e2 g2 | "Em"B2> A2 G2 | 
"Am"A2> B2 e2 | "G"(d2> c2) B2 | "Am"A6 | A6 |]

